assets/fc/fc-org-unit.svg

<svg xmlns="http://www.w3.org/2000/svg" width="100%" height="100%" viewBox="0 0 48 48"><path fill="#90CAF9" d="M10 10v28h28V10H10zm24 24H14V14h20v20z"/><path fill="#D81B60" d="M6 6h12v12H6z"/><g fill="#2196F3"><path d="M30 6h12v12H30zM6 30h12v12H6zM30 30h12v12H30z"/></g></svg>

<svg xmlns="http://www.w3.org/2000/svg" width="100%" height="100%" viewBox="0 0 48 48"><path fill="#90CAF9" d="M10,10v28h28V10H10z M34,34H14V14h20V34z"/><path fill="#D81B60" d="M6 6H18V18H6z"/><g fill="#2196F3"><path d="M30 6H42V18H30zM6 30H18V42H6zM30 30H42V42H30z"/></g></svg>
